!!!SOCIAL_FUNCTION:	dream songs
!!!PDT:	1932
!!!OTL: No_56_Dream_of_"Spirit_Buffalo".krn
!!!REG: Wisconsin
!!!LANG: Non-Tone
!!!LING_GROUP: Algonquin
**kern
*staff1
=1-
*clefF4
*k[b-]
*M2/4
8.e\L
16e\Jk
8.e\L
16c\Jk
=2
8.e\L
16c\Jk
4c\
=3!|:
8.e\L
16e\Jk
8.e\L
16c\Jk
=4
8.c\L
16A\Jk
4G\
=5
8.B-\L
16G\Jk
4G;\
=6
8.F/L
16C/Jk
8.C/L
16G/Jk
=7
8.G\L
16F\Jk
4F;\
=8
8.D/L
16C/Jk
4C/
=9
8.D/L
16C/Jk
8C/L
8C/J
=10
2C/
=11
4C/
4r
==:|!
*-
